X: 39920
T: Thomas Reilly, Clerk Of Fore
R: strathspey
M: 4/4
K: Adorian
|:G|EAAB c2 c/B/A|GA B/c/B AGED|EAAB c2 c/B/A|GA B/c/B A2 A:|
|:f|edef gaed|eA A2 BAGE|EAAB c2 c/B/A|GA B/c/B A2 A:|

